X:263
T:Reel 263
M:4/4
K:Cmaj
L:1/8
 (3GAB |cC (3CCC A,CG,C|A,DDC DCDC|B,CDC A,CG,C||ABcA BcGFE:||2 (3ABc GF ECC2|cGec dBAc|Gcec dcAB|c2ec AcGE|FDEC DCA,C|c2ec decA|Gcec Bcdc|e2ec  (3ded Bd|cAGF ECCF|
